packages/foundations/assets/icons/functional/images/social/face_disappointed_20.svg

<svg xmlns="http://www.w3.org/2000/svg" width="20" height="20" fill="none"><g clip-path="url(#a)"><path fill="#1A1C1F" fill-rule="evenodd" d="M15 10c0 2.757-2.243 5-5 5s-5-2.243-5-5 2.243-5 5-5 5 2.243 5 5M3 10a7 7 0 1 0 14 0 7 7 0 0 0-14 0m6.468-1.173a.984.984 0 0 0-.38-1.323c-.465-.276-1.072-.113-1.362.341a.45.45 0 0 1-.355.207 1.001 1.001 0 0 0 .029 2h.03c1.354-.041 1.972-1.104 2.038-1.225m3.161-.775a.46.46 0 0 1-.354-.204 1 1 0 0 0-1.744.979c.066.121.684 1.184 2.038 1.225h.03a1 1 0 0 0 .03-2m-.255 3.866c-.156-.632-.855-1.828-2.377-1.828-1.511 0-2.232 1.185-2.402 1.811a.8.8 0 0 0 .305.851.81.81 0 0 0 .912.024c.017-.011.431-.271 1.171-.271.726 0 1.139.251 1.169.271a.8.8 0 0 0 .9-.005.805.805 0 0 0 .322-.853" clip-rule="evenodd"/></g><defs><clipPath id="a"><path fill="#fff" d="M0 0h20v20H0z"/></clipPath></defs></svg>

<svg width="20" height="20" viewBox="0 0 20 20" fill="none" xmlns="http://www.w3.org/2000/svg">
<g clip-path="url(#clip0_187_360)">
<path fill-rule="evenodd" clip-rule="evenodd" d="M15 10C15 12.757 12.757 15 10 15C7.243 15 5 12.757 5 10C5 7.243 7.243 5 10 5C12.757 5 15 7.243 15 10ZM3 10C3 13.866 6.134 17 10 17C13.866 17 17 13.866 17 10C17 6.134 13.866 3 10 3C6.134 3 3 6.134 3 10ZM9.468 8.827C9.726 8.354 9.552 7.778 9.088 7.504C8.623 7.228 8.016 7.391 7.726 7.845C7.705 7.878 7.587 8.046 7.371 8.052C6.819 8.069 6.385 8.53 6.401 9.082C6.417 9.623 6.861 10.052 7.4 10.052H7.43C8.784 10.011 9.402 8.948 9.468 8.827ZM12.629 8.052C12.419 8.046 12.302 7.888 12.275 7.848C12.004 7.381 11.408 7.209 10.93 7.471C10.445 7.736 10.266 8.343 10.531 8.827C10.597 8.948 11.215 10.011 12.569 10.052H12.599C13.138 10.052 13.582 9.623 13.598 9.082C13.616 8.529 13.182 8.068 12.629 8.052ZM12.374 11.918C12.218 11.286 11.519 10.09 9.997 10.09C8.486 10.09 7.765 11.275 7.595 11.901C7.508 12.22 7.633 12.556 7.9 12.752C8.168 12.949 8.533 12.956 8.812 12.776C8.829 12.765 9.243 12.505 9.983 12.505C10.709 12.505 11.122 12.756 11.152 12.776C11.287 12.867 11.443 12.912 11.598 12.912C11.757 12.912 11.915 12.865 12.052 12.771C12.325 12.581 12.454 12.242 12.374 11.918Z" fill="#1A1C1F"/>
</g>
<defs>
<clipPath id="clip0_187_360">
<rect width="20" height="20" fill="white"/>
</clipPath>
</defs>
</svg>
